X:1
T:Flight of the bumblebee
Z:Thrimlion
Q:1/4=500
M:2/4
L:1/4
K:C

f4| f4 | f4| f4| f | e _e d _d c ^c d ^d | e _e d _d c f e ^d |
e _e d _d c ^c d ^d | e _e d _d c ^c d ^d | e _e d ^c d ^c c B | c ^c d ^d e f e ^d |e _e d ^c d ^c c B | c ^c d ^d e ^f g ^g | a _a g ^f f _b a ^g | a _a g ^f f ^f g ^g |a _a g ^f f _b a ^g | a _a g ^f f _b a ^g | a _a g ^f f ^f g ^g | a _a g ^f g ^f f e |f ^f g ^g a _b a ^g | a _a g ^f g ^f f e | f ^f g ^g a _b a ^g | e _e D _D C f e ^D |e _e D _D C ^C D ^D | e _e D _D C ^C D ^D | e _e D ^C D ^C C B | C ^C D ^D e f e ^D |e _e D ^C D ^C C B | C ^C D ^D e ^f g ^g | a _a g ^f f _b a ^g | a _a g ^f f ^f g ^g |a _a g ^f f _b a ^g | a _a g ^f f _b a ^g | a _a g ^f f ^f g ^g | a _a g ^f g ^f f e |f ^f g ^g a _b a ^g | a _a g ^f g ^f f e | f ^f g ^g a _b a ^g | a2 a2 | _b4 |a2 a2 | _b4 | a _b a ^G a _b a ^G | a _b a ^G a _b a ^G |a ^a b c _d c b _b | a ^a b c _d c b _b | a2 d2 | _e4 |a2 d2 | _e4 | d _e d ^c d _e d ^c | d _e d ^c d _e d ^c |d ^d e f ^f e _e | d ^d e f ^f e _e | d ^c c b _b _e d ^c | d ^c c b ^a b c ^c |d ^c c b c b _b a | ^a b c ^c c ^c d ^d | e f e ^d e f e ^d | e f e ^d e f e ^d |e f e ^d e f e ^d | e f e ^d e f e ^d | z4 e z c z | a z F z a z c z |e4 e z c z | a z F z a z c z |